Adwaita++/places/16/folder-steam.svg

<svg height="16" width="16" xmlns="http://www.w3.org/2000/svg">
  <path d="m0 10.057 3.0078 1.736c-.005.069-.0076.138-.0078.207 0 1.657 1.3432 3 3 3 1.6569 0 3-1.343 3-3-.0007-.095-.0059-.189-.0156-.283l4.3766-2.8303c1.55-.3935 2.636-1.7876 2.639-3.3867 0-1.933-1.567-3.5-3.5-3.5-1.717.001-3.1792 1.2468-3.4531 2.9414l-2.4785 4.1152c-.1873-.0369-.3776-.0558-.5684-.0566-.4528.001-.8995.1045-1.3066.3027l-4.6934-2.7099m12.5-3.5928c1.381 0 2.5 1.1193 2.5 2.5s-1.119 2.5-2.5 2.5-2.5-1.1193-2.5-2.5 1.119-2.5 2.5-2.5zm0 1c-.828 0-1.5.6716-1.5 1.5s.672 1.5 1.5 1.5 1.5-.6716 1.5-1.5-.672-1.5-1.5-1.5zm-6.5 6c1.1046 0 2 .895 2 2s-.8954 2-2 2c-.9536-.001-1.7737-.676-1.959-1.611l.7051.408c.7197.415 1.6333.171 2.0488-.549s.1709-1.633-.5488-2.049l-.3379-.195c.0306-.002.0612-.003.0918-.004z" fill="#474747"/>
</svg>

<svg xmlns="http://www.w3.org/2000/svg" width="16" height="16" version="1.1">
 <defs>
  <style id="current-color-scheme" type="text/css">
   .ColorScheme-Text { color:#474747; } .ColorScheme-Highlight { color:#4285f4; }
  </style>
 </defs>
 <path style="fill:currentColor" class="ColorScheme-Text" d="M 0,10.057 3.0078,11.793 C 3.0028,11.862 3.0002,11.931 3,12 3,13.657 4.3432,15 6,15 7.6569,15 9,13.657 9,12 8.9993,11.905 8.9941,11.811 8.9844,11.717 L 13.361,8.8867 C 14.911,8.4932 15.997,7.0991 16,5.5 16,3.567 14.433,2 12.5,2 10.783,2.001 9.3208,3.2468 9.0469,4.9414 L 6.5684,9.0566 C 6.3811,9.0197 6.1908,9.0008 6,9 5.5472,9.001 5.1005,9.1045 4.6934,9.3027 L 0,6.5928 M 12.5,3 C 13.881,3 15,4.1193 15,5.5 15,6.8807 13.881,8 12.5,8 11.119,8 10,6.8807 10,5.5 10,4.1193 11.119,3 12.5,3 Z M 12.5,4 C 11.672,4 11,4.6716 11,5.5 11,6.3284 11.672,7 12.5,7 13.328,7 14,6.3284 14,5.5 14,4.6716 13.328,4 12.5,4 Z M 6,10 C 7.1046,10 8,10.895 8,12 8,13.105 7.1046,14 6,14 5.0464,13.999 4.2263,13.324 4.041,12.389 L 4.7461,12.797 C 5.4658,13.212 6.3794,12.968 6.7949,12.248 7.2104,11.528 6.9658,10.615 6.2461,10.199 L 5.9082,10.004 C 5.9388,10.002 5.9694,10.001 6,10 Z"/>
</svg>
